X:228
T: AUF ERDEN ALLEZEIT
N: E0114A
O: Europa, Mitteleuropa, Deutschland, Westfalen
R: erzaehlendes Volks - Lied, Schalk -, Schelmen - Lied
M: 4/4
L: 1/8
K: G
D2 | G4B2G2 | A4c2
A2 | B2B2d2B2 | A4z2
GA | B2B2B2AB | c3dc2
cB | A2A2A2Bc | d3ed2
G2 | G4F2A2 | A4G2
B2 | B2B2c2A2 | G4z2

@@@ Tune index: 3878
